X:1
T:Miss Mary Gray of Backworth's Strathspey
T:Miss Mary Gray of Backworth's Strathspey
T:Abraham Mackintosh
C:Abraham Mackintosh
%%score 1 2
L:1/8
M:2/2
K:D
V:1 treble 
V:2 bass 
V:1
 A | F<DA>F B>GA>G | F<D F/G/A d3 f | F<DA>F B>GA>F | G<EE>F G3 :| B | A<FD>F d>FD>F | %7
 A>FD>F A3 B | A<FD>F d>FD>F | G<EE>F G3 B | A>FD>F d>FD>F | A>FD>F A3 g | f>de>c d<BA>F | %13
 G<EE>F G3 |] %14
V:2
 z | D,2 [D,F,]2 [D,G,]2 [D,F,]2 | D,2 D,2 F,2 D,2 | D,2 [D,F,]2 [D,G,]2 [D,F,]2 | E,2 E,2 E,3 :| %5
 z | [D,,D,]2 [D,,D,]2 [D,,D,]2 [D,,D,]2 | [D,,D,]2 [D,,D,]2 [D,,D,]2 [D,,D,]2 | %8
 [D,,D,]2 [D,,D,]2 [D,,D,]2 [D,,D,]2 | [E,,E,]2 [E,,E,]2 [E,,E,]2 [E,,E,]2 | %10
 [D,,D,]2 [D,,D,]2 [D,,D,]2 [D,,D,]2 | [D,,D,]2 [D,,D,]2 [F,,F,]2 [E,,E,]2 | %12
 [D,,D,]2 [A,,A,]2 [D,,D,]2 [^D,,^D,]2 | [E,,E,]2 [E,,E,]2 [E,,E,]2 x |] %14

